X: 15803
T: Goodnatured Man, The
R: hornpipe
M: 4/4
K: Gmajor
d2|g2bg d2gd|BcdB G2AB|c2ec A2 cA|FGAB cdef|
g2bg d2gd|BcdB G2AB|cedc BAGF|Az G2 G2:|
Bc|dBdB gfgf|ecec agag|fdfd gfgb|(3(aba) (3(gfe) d2 ef|
g2bg d2gd|BcdB G2AB|cedc BAGF|Az G2 G2:|

